X:1
T: Monaghan Twig
C:
R:Reel
Q: 232
K:D
M:4/4
L:1/8
|:((3ABA) AG FD GE|FD GF ((3EBE) E2|((3ABA) AG FD GE|FD GE ((3DED) D2|
((3ABA) AG FD GE|FD GF ((3EBE) E2|((3ABA) AG FD GE|FD GE ((3DED) D2|
cA ((3Bcd) ((3ecA) AB|cA BG ((3EGE) E2|cA ((3Bcd) ((3ecA) AG|FD GE ((3DED) D2|
cA ((3Bcd) ((3ecA) AB|cA BG ((3EGE) E2|cA ((3Bcd) ((3ecA) AG|FD GE ((3DED) D2:|
